X: 1
T: Steamboat, The
C: Trad
R: Hornpipe (Swung)
M: 4/4
L: 1/8
K: G
Z: ABC transcription by Verge Roller
r: 32
|: (3def | "G" g2 b>g d2 g>d | "G" B>cd>B G2 A>B | "Am" c2 e>c A2 c>A | "D" F>GA>B c>de>f |
"G" g2 b>g d2 g>d | "G" B>cd>B G2 A>B | "C" c>ed>c "D" B>AG>F | "G" A2 G2 G2 :|
|: B>c | "G" d>Bd>B g2 g2 | "C" e>ce>c "Am" a2 a2 | "D" f2 f2 "G" g2 g2 | "Am7" a>gf>e "D" d>ef>d |
"G" g2 b>g d2 g>d | "G" B>cd>B  G2 A>B | "Am" c>ed>c "D" B>AG>F | "G" A2 G2 G2 :|
